symbols/web/local_laundry_service/materialsymbolsoutlined/local_laundry_service_wght700grad200fill1_24px.svg

<svg xmlns="http://www.w3.org/2000/svg" height="24" width="24"><path d="M6.25 23.15q-1.4 0-2.4-.987-1-.988-1-2.413V4.25q0-1.425 1-2.413 1-.987 2.4-.987h11.5q1.4 0 2.4.987 1 .988 1 2.413v15.5q0 1.425-1 2.413-1 .987-2.4.987Zm5.775-4.25q2.025 0 3.45-1.425Q16.9 16.05 16.9 14t-1.425-3.475Q14.05 9.1 12 9.1t-3.475 1.425Q7.1 11.95 7.1 14q0 2.025 1.438 3.462Q9.975 18.9 12.025 18.9ZM12 16.625q-.525 0-1-.2t-.85-.575l3.7-3.7q.4.35.588.838.187.487.187 1.012 0 1.1-.762 1.863-.763.762-1.863.762ZM8.525 7.85q.55 0 .963-.4.412-.4.412-.975 0-.55-.412-.938-.413-.387-.963-.387t-.95.387q-.4.388-.4.938 0 .575.4.975t.95.4Zm3.625 0q.55 0 .95-.4.4-.4.4-.975 0-.55-.4-.938-.4-.387-.95-.387-.55 0-.937.387-.388.388-.388.938 0 .575.388.975.387.4.937.4Z"/></svg>

<svg xmlns="http://www.w3.org/2000/svg" height="24" width="24"><path d="M6.25 23.15Q4.85 23.15 3.85 22.163Q2.85 21.175 2.85 19.75V4.25Q2.85 2.825 3.85 1.837Q4.85 0.85 6.25 0.85H17.75Q19.15 0.85 20.15 1.837Q21.15 2.825 21.15 4.25V19.75Q21.15 21.175 20.15 22.163Q19.15 23.15 17.75 23.15ZM12.025 18.9Q14.05 18.9 15.475 17.475Q16.9 16.05 16.9 14Q16.9 11.95 15.475 10.525Q14.05 9.1 12 9.1Q9.95 9.1 8.525 10.525Q7.1 11.95 7.1 14Q7.1 16.025 8.538 17.462Q9.975 18.9 12.025 18.9ZM12 16.625Q11.475 16.625 11 16.425Q10.525 16.225 10.15 15.85L13.85 12.15Q14.25 12.5 14.438 12.988Q14.625 13.475 14.625 14Q14.625 15.1 13.863 15.863Q13.1 16.625 12 16.625ZM8.525 7.85Q9.075 7.85 9.488 7.45Q9.9 7.05 9.9 6.475Q9.9 5.925 9.488 5.537Q9.075 5.15 8.525 5.15Q7.975 5.15 7.575 5.537Q7.175 5.925 7.175 6.475Q7.175 7.05 7.575 7.45Q7.975 7.85 8.525 7.85ZM12.15 7.85Q12.7 7.85 13.1 7.45Q13.5 7.05 13.5 6.475Q13.5 5.925 13.1 5.537Q12.7 5.15 12.15 5.15Q11.6 5.15 11.213 5.537Q10.825 5.925 10.825 6.475Q10.825 7.05 11.213 7.45Q11.6 7.85 12.15 7.85Z"/></svg>
